pkgs/clan-app/ui/icons/search-filled.svg

<svg xmlns="http://www.w3.org/2000/svg" width="48" height="48" viewBox="0 0 48 48" fill="currentColor">
    <path d="M39.2002 39.2002H43V43H39.2002V39.2021H35.3994V35.4014H39.2002V39.2002ZM27.7998 8.80078H31.5996V31.6016H27.7998V35.4004H12.6006V12.6016H20.2002V8.80078H12.6006V5H27.7998V8.80078ZM35.4004 35.4004H31.6006V31.6006H35.4004V35.4004ZM12.5996 12.5996H8.7998V20.2002H12.5996V31.6016H8.7998V27.8008H5V12.5996H8.7998V8.80078H12.5996V12.5996ZM35.4004 27.8008H31.6006V12.5996H35.4004V27.8008Z"/>
</svg>

<svg xmlns="http://www.w3.org/2000/svg" width="48" height="48" fill="currentColor"><path d="M39.2 39.2H43V43h-3.8v-3.798h-3.8v-3.8h3.8zM27.8 8.8h3.8v22.802h-3.8V35.4H12.6V12.602h7.6V8.8h-7.6V5h15.2zm7.6 26.6h-3.8v-3.8h3.8zM12.6 12.6H8.8v7.6h3.8v11.402H8.8V27.8H5V12.6h3.8V8.8h3.8zm22.8 15.2h-3.8V12.6h3.8z"/></svg>
